X: 104
T: Trip to Bath
B: 204 Favourite Country Dances
N: Published by Straight & Skillern, London ca.1775
F: http://imslp.org/wiki/204_Favourite_Country_Dances_(Various) p.52 #104
Z: 2014 John Chambers <jc:trillian.mit.edu>
M: C
L: 1/8
K: G
% - - - - - - - - - - - - - - - - - - - - - - - - -
|:\
GBdB e2eg | dBGB A/A/A A2 |\
G/A/B/c/ dB e2eg | gagd B/B/B B2 :|
|:\
gage dedB | gage agab |\
gbeg dega | b/a/g/f/ gd B/B/B B2 :|
% - - - - - - - - - - - - - - - - - - - - - - - - -
%%begintext align
%% Set all 4 & change sides set the same
%% back again cross over one Cu.
%% Right & Left at top
%%endtext

%%sep 1 1 500
%%sep 1 1 500
